X:1
T:Green cockade - fry
C:Taken down from E. Fry, by S.B.G. Jan. 1889.
%%VWML:SBG-1-1-187-0
F:http://www.vwml.org/record/SBG/1/1/187
Z:Original Sibleius Transcription by Martin and Shan Graebe
M:2/4
L:1/8
K:F
F | FA cd | dc2F | BB AG | F2>F2 | FA cd |dc2A | dc BA | G2>c2 | de cA |
Bc Ac | fe dA | c2>A2 | BA GA |dc2A/c/ | dc BA/G/ | F3z ||
T:Green cockade (northumbrian minstrelsy)
T:‘My love is newly listed’ from Northumbrian Minstrelsy 1881, p. 97.
M:4/4
L:1/8
K:Bm
E>F | G>B Bc | d<B BA | GE E^D |E3E/F/ | G>B Bc | d>d e>d | cA B^G |A2 zF |
 G2B2 B>^c | d>d e>d | ^cA Ac |d2>=c2 | BE GA | B<d =c>A | BG/E/ E>E E2 |
T:Green cockade - hard
T:Taken down from R. Hard by H.Fl.S.
M:4/4
L:1/8
K:G
G2 | G2 B2 | d2 ed | d2 B2 |A2 Bd | c2 A2 | c2 A2 | G3G2 |
G2B2 |d2d2 |d2B2 |c2d2 |e2d2 |c2B | cd6 |G2 |G2B2 |d2d2 |d2B2 |c2d2 |e2d2 |c2B2 |A2B2 |c2A2 |
d4 |G2F2 |E4 |c2d2 |e4 |A2G2 |F2D2 |d2d2 |d2e2 |d2e2 |d2B2 |G2B |dc2A2 |B2A2 |G4 |



